src/svg/fog.svg

<svg xmlns="http://www.w3.org/2000/svg" width="1000" height="1000" viewBox="0 0 1000 1000"><path fill="#060606" d="M858.702 552.31h-724.696c-13.217 0-23.919-9.497-23.919-21.176s10.702-21.155 23.919-21.155h724.696c13.217 0 23.981 9.477 23.981 21.155s-10.764 21.176-23.981 21.176zm23.026 85.908h-763.422c-13.216 0-23.96-9.476-23.96-21.154 0-11.68 10.744-21.177 23.96-21.177h763.422c13.237 0 23.939 9.497 23.939 21.177 0 11.678-10.702 21.154-23.939 21.154zm-22.028 86.117h-701.775c-13.269 0-23.96-9.497-23.96-21.176 0-11.68 10.691-21.155 23.96-21.155h701.775c13.217 0 23.96 9.476 23.96 21.155s-10.743 21.176-23.96 21.176zm-124.333 84.079h-450.086c-13.269 0-23.971-9.476-23.971-21.154 0-11.741 10.702-21.218 23.971-21.218h450.086c13.237 0 23.919 9.477 23.919 21.218 0 11.678-10.682 21.154-23.919 21.154zm-30.735-340.434c.873-7.336 1.455-16.064 1.455-23.587 0-105.588-85.535-191.144-191.092-191.144-99.926 0-181.782 76.682-190.281 174.415-7.471-1.164-15.046-1.912-22.849-1.912-39.807 0-75.913 16.854-102.689 42.228h-79.321c31.909-52.285 89.462-90.813 152.771-99.708 34.476-100.809 129.829-175.703 242.369-175.703 134.026 0 243.875 105.256 255.18 236.343 27.889 6.587 53.2 21.176 74.438 39.068h-139.981z"/></svg>

<?xml version="1.0" encoding="utf-8"?>
<!-- Generator: Adobe Illustrator 16.0.0, SVG Export Plug-In . SVG Version: 6.00 Build 0)  -->
<!DOCTYPE svg PUBLIC "-//W3C//DTD SVG 1.1//EN" "http://www.w3.org/Graphics/SVG/1.1/DTD/svg11.dtd">
<svg version="1.1" id="Layer_1" xmlns="http://www.w3.org/2000/svg" xmlns:xlink="http://www.w3.org/1999/xlink" x="0px" y="0px"
	 width="1000px" height="1000px" viewBox="0 0 1000 1000" enable-background="new 0 0 1000 1000" xml:space="preserve">
<path fill="#060606" d="M858.702,552.31H134.006c-13.217,0-23.919-9.497-23.919-21.176s10.702-21.155,23.919-21.155h724.696
	c13.217,0,23.981,9.477,23.981,21.155S871.919,552.31,858.702,552.31L858.702,552.31z M881.728,638.218H118.306
	c-13.216,0-23.96-9.476-23.96-21.154c0-11.68,10.744-21.177,23.96-21.177h763.422c13.237,0,23.939,9.497,23.939,21.177
	C905.667,628.742,894.965,638.218,881.728,638.218L881.728,638.218z M859.7,724.335H157.925c-13.269,0-23.96-9.497-23.96-21.176
	c0-11.68,10.691-21.155,23.96-21.155H859.7c13.217,0,23.96,9.476,23.96,21.155C883.66,714.838,872.917,724.335,859.7,724.335
	L859.7,724.335z M735.367,808.414H285.281c-13.269,0-23.971-9.476-23.971-21.154c0-11.741,10.702-21.218,23.971-21.218h450.086
	c13.237,0,23.919,9.477,23.919,21.218C759.286,798.938,748.604,808.414,735.367,808.414L735.367,808.414z M704.632,467.98
	c0.873-7.336,1.455-16.064,1.455-23.587c0-105.588-85.535-191.144-191.092-191.144c-99.926,0-181.782,76.682-190.281,174.415
	c-7.471-1.164-15.046-1.912-22.849-1.912c-39.807,0-75.913,16.854-102.689,42.228h-79.321
	c31.909-52.285,89.462-90.813,152.771-99.708c34.476-100.809,129.829-175.703,242.369-175.703
	c134.026,0,243.875,105.256,255.18,236.343c27.889,6.587,53.2,21.176,74.438,39.068H704.632L704.632,467.98z"/>
</svg>
